X: 9263
T: Dan Sullivan's Shamrock Swing Band
R: polka
M: 2/4
K: Aminor
|:A>B cd|ed ea|ge de|BA G2|
A>B cd|ed ea|ge de|1 BA AG:|2 BA Af/g/||
|:aa ge|dB gf/g/|aA AB/c/|dB G2|
A>B cd|ed ea|ge de|1 BA Af/g/:|2 BA AG||

